SVG_Azure_All/App Service Connector.svg

<?xml version="1.0" encoding="UTF-8" standalone="no"?>
<!-- Generated by Microsoft Visio, SVG Export App Service Connector.svg Page-1 -->

<svg
   xmlns:dc="http://purl.org/dc/elements/1.1/"
   xmlns:cc="http://creativecommons.org/ns#"
   xmlns:rdf="http://www.w3.org/1999/02/22-rdf-syntax-ns#"
   xmlns:svg="http://www.w3.org/2000/svg"
   xmlns="http://www.w3.org/2000/svg"
   xmlns:sodipodi="http://sodipodi.sourceforge.net/DTD/sodipodi-0.dtd"
   xmlns:inkscape="http://www.inkscape.org/namespaces/inkscape"
   width="0.85492533in"
   height="0.88308567in"
   viewBox="0 0 61.554528 63.582034"
   xml:space="preserve"
   class="st8"
   version="1.1"
   id="svg65"
   sodipodi:docname="App Service Connector.svg"
   style="font-size:12px;overflow:visible;color-interpolation-filters:sRGB;fill:none;fill-rule:evenodd;stroke-linecap:square;stroke-miterlimit:3"
   inkscape:version="0.92.5 (2060ec1f9f, 2020-04-08)"><metadata
   id="metadata69"><rdf:RDF><cc:Work
       rdf:about=""><dc:format>image/svg+xml</dc:format><dc:type
         rdf:resource="http://purl.org/dc/dcmitype/StillImage" /></cc:Work></rdf:RDF></metadata><sodipodi:namedview
   pagecolor="#ffffff"
   bordercolor="#666666"
   borderopacity="1"
   objecttolerance="10"
   gridtolerance="10"
   guidetolerance="10"
   inkscape:pageopacity="0"
   inkscape:pageshadow="2"
   inkscape:window-width="640"
   inkscape:window-height="480"
   id="namedview67"
   showgrid="false"
   inkscape:zoom="1.3450126"
   inkscape:cx="41.032326"
   inkscape:cy="42.381126"
   inkscape:window-x="0"
   inkscape:window-y="0"
   inkscape:window-maximized="0"
   inkscape:current-layer="svg65" />
	<style
   type="text/css"
   id="style2">
	<![CDATA[
		.st1 {fill:url(#grad0-6);stroke:none;stroke-linecap:butt;stroke-width:34}
		.st2 {fill:#b796f9;stroke:none;stroke-linecap:butt;stroke-width:34}
		.st3 {fill:url(#grad0-12);stroke:none;stroke-linecap:butt;stroke-width:34}
		.st4 {fill:#f2f2f2;stroke:none;stroke-linecap:butt;stroke-width:34}
		.st5 {fill:#32bedd;stroke:none;stroke-linecap:butt;stroke-width:34}
		.st6 {fill:#9cebff;stroke:none;stroke-linecap:butt;stroke-width:34}
		.st7 {fill:#50e6ff;stroke:none;stroke-linecap:butt;stroke-width:34}
		.st8 {fill:none;fill-rule:evenodd;font-size:12px;overflow:visible;stroke-linecap:square;stroke-miterlimit:3}
	]]>
	</style>

	<defs
   id="Patterns_And_Gradients">
		<linearGradient
   id="grad0-6"
   x1="-6.0005645"
   y1="84.494314"
   x2="41.975402"
   y2="84.494314"
   gradientTransform="scale(0.99688248,1.0031273)"
   gradientUnits="userSpaceOnUse">
			<stop
   offset="0"
   stop-color="#773adc"
   stop-opacity="1"
   id="stop4" />
			<stop
   offset="1"
   stop-color="#a67af4"
   stop-opacity="1"
   id="stop6" />
		</linearGradient>
		<linearGradient
   id="grad0-12"
   x1="-3.3504666"
   y1="109.79233"
   x2="21.387512"
   y2="109.79233"
   gradientTransform="scale(0.9968434,1.0031666)"
   gradientUnits="userSpaceOnUse">
			<stop
   offset="0"
   stop-color="#ffffff"
   stop-opacity="1"
   id="stop9" />
			<stop
   offset="0.995"
   stop-color="#ffffff"
   stop-opacity="1"
   id="stop11" />
		</linearGradient>
	</defs>
	<g
   id="g63"
   transform="translate(-34.002292,-34.002251)">
		<title
   id="title15">Page-1</title>
		<g
   id="group10076-1"
   transform="translate(38.8603,-34.0157)">
			<title
   id="title17">App Service Connector</title>
			<g
   id="group10077-2">
				<title
   id="title19">Sheet.10077</title>
				<g
   id="shape10078-3"
   transform="translate(1.12385,-16.7406)">
					<title
   id="title21">Sheet.10078</title>
					<path
   d="m 25.64,123.53 a 1.52896,1.53854 0 0 1 0.76,-1.33 l 14.22,-8.31 a 1.52539,1.53494 0 0 1 0.73,-0.2 23.9132,24.063 -180 1 0 -15.71,17.91 z"
   class="st1"
   id="path23"
   inkscape:connector-curvature="0"
   style="fill:url(#grad0-6);stroke:none;stroke-width:34;stroke-linecap:butt" />
				</g>
				<g
   id="shape10079-7"
   transform="translate(0,-21.4533)">
					<title
   id="title26">Sheet.10079</title>
					<path
   d="m 0,128.28 a 24.0132,24.1637 -180 0 0 3.49,3.32 l 5.94,-5.98 -3.39,-3.41 z"
   class="st2"
   id="path28"
   inkscape:connector-curvature="0"
   style="fill:#b796f9;stroke:none;stroke-width:34;stroke-linecap:butt" />
				</g>
				<g
   id="shape10080-9"
   transform="translate(7.075,-28.7398)">
					<title
   id="title31">Sheet.10080</title>
					<path
   d="m 0,115.39 a 11.387596,11.459006 -180 1 0 16.1,16.21 l 5.22,-5.26 -16.1,-16.2 z"
   class="st3"
   id="path33"
   inkscape:connector-curvature="0"
   style="fill:url(#grad0-12);stroke:none;stroke-width:34;stroke-linecap:butt" />
				</g>
				<g
   id="shape10081-13"
   transform="translate(18.1725,-40.0415)">
					<title
   id="title36">Sheet.10081</title>
					<path
   d="m 8.95,115.45 0.32,0.32 a 1.71472,1.72546 0 0 1 0,2.44 L 2.74,124.78 0,122.02 6.54,115.45 a 1.71472,1.72546 0 0 1 2.42,0 z m 6.78,6.81 0.31,0.32 a 1.71472,1.72546 0 0 1 0,2.44 l -6.54,6.58 -2.73,-2.76 6.53,-6.57 a 1.71472,1.72546 0 0 1 2.43,0 z"
   class="st4"
   id="path38"
   inkscape:connector-curvature="0"
   style="fill:#f2f2f2;stroke:none;stroke-width:34;stroke-linecap:butt" />
				</g>
				<g
   id="shape10082-15"
   transform="rotate(-45,-24.278443,79.20276)">
					<title
   id="title41">Sheet.10082</title>
					<path
   d="m 0,130.73 a 0.85738,0.862752 -180 0 0 0.85736,0.86273 L 4.19,131.6 a 0.85738,0.862752 -180 0 0 0.85736,-0.86273 L 5.05,105.13 A 0.85738,0.862752 -180 0 0 4.19264,104.26727 L 0.86,104.27 a 0.85738,0.862752 -180 0 0 -0.85736,0.86273 z"
   class="st2"
   id="path43"
   inkscape:connector-curvature="0"
   style="fill:#b796f9;stroke:none;stroke-width:34;stroke-linecap:butt" />
				</g>
				<g
   id="shape10083-17"
   transform="translate(42.4965)">
					<title
   id="title46">Sheet.10083</title>
					<path
   d="m 14.2,106.76 v 16.53 L 0,131.6 v -16.56 z"
   class="st5"
   id="path48"
   inkscape:connector-curvature="0"
   style="fill:#32bedd;stroke:none;stroke-width:34;stroke-linecap:butt" />
				</g>
				<g
   id="shape10084-19"
   transform="translate(28.2786,-16.5321)">
					<title
   id="title51">Sheet.10084</title>
					<path
   d="M 28.41,123.29 14.22,131.6 0,123.27 14.22,114.96 Z"
   class="st6"
   id="path53"
   inkscape:connector-curvature="0"
   style="fill:#9cebff;stroke:none;stroke-width:34;stroke-linecap:butt" />
				</g>
				<g
   id="shape10085-21"
   transform="translate(28.2786)">
					<title
   id="title56">Sheet.10085</title>
					<path
   d="M 14.22,115.06 V 131.6 L 0,123.29 v -16.55 z"
   class="st7"
   id="path58"
   inkscape:connector-curvature="0"
   style="fill:#50e6ff;stroke:none;stroke-width:34;stroke-linecap:butt" />
				</g>
			</g>
		</g>
	</g>
</svg>

<?xml version="1.0" encoding="UTF-8" standalone="no"?>
<!DOCTYPE svg PUBLIC "-//W3C//DTD SVG 1.1//EN" "http://www.w3.org/Graphics/SVG/1.1/DTD/svg11.dtd">
<!-- Generated by Microsoft Visio, SVG Export App Service Connector.svg Page-1 -->
<svg xmlns="http://www.w3.org/2000/svg" xmlns:xlink="http://www.w3.org/1999/xlink" xmlns:ev="http://www.w3.org/2001/xml-events"
		width="1.79935in" height="1.82774in" viewBox="0 0 129.553 131.597" xml:space="preserve" color-interpolation-filters="sRGB"
		class="st8">
	<style type="text/css">
	<![CDATA[
		.st1 {fill:url(#grad0-6);stroke:none;stroke-linecap:butt;stroke-width:34}
		.st2 {fill:#b796f9;stroke:none;stroke-linecap:butt;stroke-width:34}
		.st3 {fill:url(#grad0-12);stroke:none;stroke-linecap:butt;stroke-width:34}
		.st4 {fill:#f2f2f2;stroke:none;stroke-linecap:butt;stroke-width:34}
		.st5 {fill:#32bedd;stroke:none;stroke-linecap:butt;stroke-width:34}
		.st6 {fill:#9cebff;stroke:none;stroke-linecap:butt;stroke-width:34}
		.st7 {fill:#50e6ff;stroke:none;stroke-linecap:butt;stroke-width:34}
		.st8 {fill:none;fill-rule:evenodd;font-size:12px;overflow:visible;stroke-linecap:square;stroke-miterlimit:3}
	]]>
	</style>

	<defs id="Patterns_And_Gradients">
		<linearGradient id="grad0-6" x1="0" y1="0" x2="1" y2="0" gradientTransform="rotate(-90 0.5 0.5)">
			<stop offset="0" stop-color="#773adc" stop-opacity="1"/>
			<stop offset="1" stop-color="#a67af4" stop-opacity="1"/>
		</linearGradient>
		<linearGradient id="grad0-12" x1="0" y1="0" x2="1" y2="0" gradientTransform="rotate(90 0.5 0.5)">
			<stop offset="0" stop-color="#ffffff" stop-opacity="1"/>
			<stop offset="0.995" stop-color="#ffffff" stop-opacity="1"/>
		</linearGradient>
	</defs>
	<g>
		<title>Page-1</title>
		<g id="group9871-1" transform="translate(38.8603,-34.0157)">
			<title>App Service Connector</title>
			<g id="group9872-2">
				<title>Sheet.9872</title>
				<g id="shape9873-3" transform="translate(1.12385,-16.7406)">
					<title>Sheet.9873</title>
					<path d="M25.64 123.53 A1.52896 1.53854 0 0 1 26.4 122.2 L40.62 113.89 A1.52539 1.53494 0 0 1 41.35 113.69 A23.9132
								 24.063 -180 1 0 25.64 131.6 L25.64 123.53 Z" class="st1"/>
				</g>
				<g id="shape9874-7" transform="translate(5.69544E-14,-21.4533)">
					<title>Sheet.9874</title>
					<path d="M-0 128.28 A24.0132 24.1637 -180 0 0 3.49 131.6 L9.43 125.62 L6.04 122.21 L0 128.28 Z" class="st2"/>
				</g>
				<g id="shape9875-9" transform="translate(7.075,-28.7398)">
					<title>Sheet.9875</title>
					<path d="M0 115.39 A11.386 11.4574 -180 1 0 16.1 131.6 L21.32 126.34 L5.22 110.14 L0 115.39 Z" class="st3"/>
				</g>
				<g id="shape9876-13" transform="translate(18.1725,-40.0415)">
					<title>Sheet.9876</title>
					<path d="M8.95 115.45 L9.27 115.77 A1.71472 1.72546 0 0 1 9.27 118.21 L2.74 124.78 L0 122.02 L6.54 115.45 A1.71472
								 1.72546 0 0 1 8.96 115.45 L8.95 115.45 ZM15.73 122.26 L16.04 122.58 A1.71472 1.72546 0 0 1 16.04
								 125.02 L9.5 131.6 L6.77 128.84 L13.3 122.27 A1.71472 1.72546 0 0 1 15.73 122.27 L15.73 122.26 Z"
							class="st4"/>
				</g>
				<g id="shape9877-15" transform="translate(-63.1158,6.0305) rotate(-45)">
					<title>Sheet.9877</title>
					<path d="M0 130.73 a0.85738 0.862752 -180 0 0 0.85736 0.862732 L4.19 131.6 a0.85738 0.862752 -180 0 0 0.85736
								 -0.862732 L5.05 105.13 a0.85738 0.862752 -180 0 0 -0.85736 -0.862732 L0.86 104.27 a0.85738 0.862752
								 -180 0 0 -0.85736 0.862732 L0 130.73 Z" class="st2"/>
				</g>
				<g id="shape9878-17" transform="translate(42.4965,-2.55795E-13)">
					<title>Sheet.9878</title>
					<path d="M14.2 106.76 L14.2 123.29 L0 131.6 L0 115.04 L14.2 106.76 Z" class="st5"/>
				</g>
				<g id="shape9879-19" transform="translate(28.2786,-16.5321)">
					<title>Sheet.9879</title>
					<path d="M28.41 123.29 L14.22 131.6 L0 123.27 L14.22 114.96 L28.41 123.29 Z" class="st6"/>
				</g>
				<g id="shape9880-21" transform="translate(28.2786,0)">
					<title>Sheet.9880</title>
					<path d="M14.22 115.06 L14.22 131.6 L0 123.29 L0 106.74 L14.22 115.06 Z" class="st7"/>
				</g>
			</g>
		</g>
	</g>
</svg>
